X:16840
T:The Highlander Who Kissed His Granny
R:Reel
S:Paddy O'Brien
H:
N:
D:Stranger At The Gate
Z:Adrian Scahill
M:4/4
L:1/8
K:G
ceAA ABcA|ceAe dBGB|ceAA ABcd|eage dBGB:||\
cggf gage|cege dBGB|cgga gceg|afge dBGB:||
